X:18
T:The Jew's daughter
Z:Jack Campin, http://www.campin.me.uk/
F:Jack Campin's Nine-Note Tunebook
% last edit 03-02-2013
S:Blaikie MS (NLS MS.1578) p20, Blaikie #57
M:3/4
L:1/8
Q:1/4=100
K:DMin
zD|D2 D2 C>D|E2  D2 DC|C2  C2 EG|A4
c2|AG E2 D2 |C2  D2 Ec|A>G E3  D|D4|]

